dist/assets/images/producersColor/Arup_logo 3.svg

<svg width="106" height="32" viewBox="0 0 106 32" fill="none" xmlns="http://www.w3.org/2000/svg">
<path d="M9.76269 20.0185L7.02382 27.9881C6.94098 28.5683 7.07618 29.0333 7.42508 29.3703C7.95718 29.8951 8.75956 30.1682 9.83247 30.1895V30.3943H0.953125V30.1895C2.82407 30.0658 3.9624 29.4301 4.37226 28.2782L13.7749 0.905273L25.358 28.4318C25.7724 29.4813 26.806 30.0658 28.4457 30.1895L28.4806 30.3943H19.3223V30.1895C20.2861 30.1895 20.9839 29.9292 21.4156 29.4045C21.6555 29.204 21.7209 28.8498 21.6074 28.3464C20.9097 26.6185 19.7453 23.8412 18.1185 20.0185H9.76269ZM10.3557 18.2778H17.351L13.583 9.04547L10.3557 18.2778ZM86.2743 3.37976V3.22617C92.4715 3.20484 96.4271 3.2987 98.1366 3.49921C99.5278 3.66134 100.827 4.17756 102.027 5.05217C103.235 5.93103 104.085 7.01041 104.574 8.2946C104.883 9.13932 105.045 10.031 105.045 10.9739C105.045 12.9108 104.443 14.5491 103.248 15.8887C101.687 17.5611 99.8593 18.3973 97.7703 18.3973C97.0027 18.3973 96.2395 18.2693 95.4851 18.0048C94.892 17.8043 94.5954 17.608 94.5954 17.4246C96.0476 17.4715 97.0551 17.4331 97.6133 17.3051C98.5772 17.0705 99.4711 16.55 100.3 15.7522C101.133 14.9458 101.647 14.0584 101.835 13.09C101.935 12.6505 101.992 12.2026 101.992 11.7589C101.992 9.29291 100.88 7.35172 98.66 5.93957C97.6482 5.28254 96.4402 4.94977 95.049 4.94977C94.2683 4.94977 93.5269 5.0735 92.8335 5.30814V27.7662C92.8335 29.1229 93.7668 29.9292 95.642 30.1895V30.3943H86.3615V30.1895C87.6961 30.0103 88.612 29.5026 89.1004 28.6707C89.2617 28.3549 89.3446 27.3182 89.3446 25.5648V5.54706C89.3446 4.46768 88.6424 3.78506 87.2512 3.49921C87.0288 3.47788 86.7017 3.43948 86.2743 3.37976ZM40.8662 3.22617C42.3883 3.22617 43.8318 3.68266 45.1924 4.5914C46.5619 5.49159 47.5475 6.64777 48.1407 8.05568C48.5113 8.97721 48.6989 9.96273 48.6989 11.008C48.6989 13.0004 48.0796 14.6386 46.8497 15.9228C46.2654 16.55 45.5021 17.143 44.5644 17.6976C46.575 20.155 49.388 23.4742 53.0076 27.6467C54.2375 29.0802 55.8947 29.7756 57.9794 29.7287C58.0142 29.7543 58.0316 29.8055 58.0316 29.8823C57.2292 30.326 56.2828 30.5479 55.2057 30.5479C53.8449 30.5479 52.65 30.2236 51.6296 29.5751C50.0464 28.5555 48.3979 26.9769 46.6927 24.848C43.9364 21.3368 42.5278 19.5535 42.4711 19.5065C41.5859 18.5424 40.5566 17.9493 39.3834 17.7317V17.5782C41.5772 17.7616 43.2954 17.1302 44.5296 15.6839C45.3757 14.6984 45.803 13.4142 45.803 11.8442C45.803 11.0506 45.6854 10.2998 45.4541 9.59156C45.0704 8.4695 44.3507 7.47546 43.3084 6.62218C42.2706 5.77318 41.1585 5.26974 39.9766 5.12043C38.6944 4.92844 37.6521 5.00524 36.854 5.34227V27.9198C36.9194 28.4659 37.229 28.9522 37.7785 29.3703C38.2278 29.7373 38.7467 29.9762 39.3311 30.0871L40.1336 30.1895V30.3943H30.4518V30.1895C31.9259 30.0103 32.881 29.4727 33.3128 28.5853L33.4349 27.8345V5.66652C33.4349 4.72365 32.881 4.05383 31.7776 3.65281C31.3459 3.52907 30.7703 3.43948 30.0506 3.37976V3.22617H40.8662ZM81.9481 3.37976C80.0162 3.64426 78.9782 4.28849 78.843 5.30814V22.2882C78.7122 23.918 78.1322 25.4496 77.0986 26.8788C76.0606 28.3038 74.7697 29.3959 73.2258 30.1553C71.935 30.7782 70.474 31.094 68.8472 31.094C66.7758 31.094 64.9877 30.6076 63.4918 29.6434C60.3605 27.6766 58.7992 24.912 58.7992 21.3496V5.51293C58.7992 4.71939 58.3152 4.09651 57.3514 3.65281C57.2336 3.63146 56.6928 3.54187 55.7289 3.37976V3.19204H65.2537V3.34563C63.4613 3.47361 62.4408 4.11784 62.2009 5.27401V22.1688C62.2009 24.8437 63.3523 26.866 65.655 28.227C66.6973 28.8669 67.9227 29.1826 69.3183 29.1826C71.0846 29.1826 72.6763 28.564 74.0981 27.3225C75.5154 26.0725 76.2437 24.5835 76.2786 22.8514L76.3135 19.6943V5.70066C76.3135 4.81751 75.7859 4.1605 74.7435 3.73813C74.5342 3.66134 73.9977 3.54187 73.1386 3.37976V3.19204H81.9481V3.37976Z" fill="black"/>
</svg>

<svg width="106" height="32" fill="none" xmlns="http://www.w3.org/2000/svg"><path d="M9.763 20.018l-2.74 7.97c-.082.58.053 1.045.402 1.382.532.525 1.335.798 2.407.82v.204H.953v-.204c1.871-.124 3.01-.76 3.42-1.912L13.774.905l11.583 27.527c.414 1.05 1.448 1.634 3.088 1.758l.035.204h-9.159v-.204c.964 0 1.662-.26 2.094-.786.24-.2.305-.554.191-1.058-.697-1.727-1.862-4.505-3.488-8.328H9.763zm.593-1.74h6.995l-3.768-9.233-3.227 9.233zM86.274 3.38v-.154c6.198-.021 10.153.073 11.863.273 1.39.162 2.69.679 3.89 1.553 1.208.879 2.058 1.958 2.547 3.243.309.844.471 1.736.471 2.679 0 1.937-.602 3.575-1.797 4.915-1.561 1.672-3.389 2.508-5.478 2.508a6.88 6.88 0 01-2.285-.392c-.593-.2-.89-.397-.89-.58 1.453.046 2.46.008 3.018-.12.964-.235 1.858-.755 2.687-1.553.833-.806 1.347-1.694 1.535-2.662.1-.44.157-.887.157-1.331 0-2.466-1.112-4.407-3.332-5.82-1.012-.656-2.22-.99-3.611-.99-.78 0-1.522.125-2.216.36v22.457c0 1.357.934 2.163 2.809 2.424v.204h-9.28v-.204c1.334-.18 2.25-.687 2.738-1.52.162-.315.245-1.352.245-3.105V5.547c0-1.08-.703-1.762-2.094-2.048-.222-.021-.55-.06-.977-.12zm-45.408-.154c1.522 0 2.966.457 4.326 1.365 1.37.9 2.355 2.057 2.949 3.465.37.921.558 1.907.558 2.952 0 1.992-.62 3.63-1.85 4.915-.584.627-1.347 1.22-2.285 1.775 2.011 2.457 4.824 5.776 8.444 9.949 1.23 1.433 2.887 2.129 4.971 2.082.035.025.053.076.053.153-.803.444-1.75.666-2.826.666-1.361 0-2.556-.324-3.576-.973-1.584-1.02-3.232-2.598-4.937-4.727-2.757-3.511-4.165-5.294-4.222-5.341-.885-.965-1.914-1.558-3.088-1.775v-.154c2.194.184 3.912-.448 5.147-1.894.846-.986 1.273-2.27 1.273-3.84 0-.793-.118-1.544-.349-2.252-.384-1.123-1.103-2.117-2.146-2.97-1.037-.849-2.15-1.352-3.331-1.502-1.283-.192-2.325-.115-3.123.222V27.92c.065.546.375 1.032.925 1.45.449.367.968.606 1.552.717l.803.102v.205h-9.682v-.204c1.474-.18 2.429-.717 2.86-1.605l.123-.75V5.666c0-.943-.554-1.613-1.657-2.014-.432-.124-1.008-.214-1.727-.273v-.154h10.815zm41.082.154c-1.932.264-2.97.908-3.105 1.928v16.98c-.13 1.63-.71 3.162-1.744 4.59a10.43 10.43 0 01-3.873 3.277c-1.291.623-2.752.939-4.379.939-2.071 0-3.86-.486-5.355-1.45-3.131-1.967-4.693-4.732-4.693-8.294V5.513c0-.794-.484-1.416-1.448-1.86-.117-.022-.658-.111-1.622-.273v-.188h9.525v.154c-1.793.128-2.813.772-3.053 1.928v16.895c0 2.675 1.151 4.697 3.454 6.058 1.042.64 2.268.956 3.663.956 1.767 0 3.358-.619 4.78-1.86 1.417-1.25 2.146-2.74 2.18-4.472l.035-3.157V5.701c0-.883-.527-1.54-1.57-1.963-.209-.077-.745-.196-1.604-.358v-.188h8.81v.188z" fill="#000"/></svg>
